packages/icons/svg/Outline/options-2.svg

<svg fill="none" height="24" viewBox="0 0 24 24" width="24" xmlns="http://www.w3.org/2000/svg"><path clip-rule="evenodd" d="m11 19.0001c-.552 0-1-.448-1-1s.448-1 1-1 1 .448 1 1-.448 1-1 1zm10-2.0001h-7.185c-.414-1.161-1.513-2-2.815-2s-2.401.839-2.815 2h-5.185c-.553 0-1 .447-1 1s.447 1 1 1h5.185c.414 1.161 1.513 2 2.815 2s2.401-.839 2.815-2h7.185c.553 0 1-.447 1-1s-.447-1-1-1zm-2-3.9999c-.552 0-1-.448-1-1s.448-1 1-1 1 .448 1 1-.448 1-1 1zm0-4.0001c-1.302 0-2.401.839-2.815 2h-13.185c-.553 0-1 .447-1 1s.447 1 1 1h13.185c.414 1.161 1.513 2 2.815 2 1.654 0 3-1.346 3-3s-1.346-3-3-3zm-12.00002-3.99993c.552 0 1 .448 1 .99999 0 .552-.448 1-1 1s-1-.448-1-1c0-.55199.448-.99999 1-.99999zm-3.99998 1.99993h1.185c.414 1.161 1.513 2 2.815 2s2.401-.839 2.815-2h11.185c.553 0 1-.447 1-1s-.447-1-1-1h-11.185c-.414-1.161-1.513-2-2.815-2s-2.401.839-2.815 2h-1.185c-.553 0-1 .447-1 1s.447 1 1 1z" fill="#6b7280" fill-rule="evenodd"/></svg>

<svg width="24" height="24" viewBox="0 0 24 24" fill="none" xmlns="http://www.w3.org/2000/svg">
<g id="Icon/Outline/options-2">
<path id="Mask" fill-rule="evenodd" clip-rule="evenodd" d="M11 19C10.448 19 10 18.552 10 18C10 17.448 10.448 17 11 17C11.552 17 12 17.448 12 18C12 18.552 11.552 19 11 19ZM21 17H13.815C13.401 15.839 12.302 15 11 15C9.698 15 8.599 15.839 8.185 17H3C2.447 17 2 17.447 2 18C2 18.553 2.447 19 3 19H8.185C8.599 20.161 9.698 21 11 21C12.302 21 13.401 20.161 13.815 19H21C21.553 19 22 18.553 22 18C22 17.447 21.553 17 21 17ZM19 13C18.448 13 18 12.552 18 12C18 11.448 18.448 11 19 11C19.552 11 20 11.448 20 12C20 12.552 19.552 13 19 13ZM19 9C17.698 9 16.599 9.839 16.185 11H3C2.447 11 2 11.447 2 12C2 12.553 2.447 13 3 13H16.185C16.599 14.161 17.698 15 19 15C20.654 15 22 13.654 22 12C22 10.346 20.654 9 19 9ZM7 5C7.552 5 8 5.448 8 6C8 6.552 7.552 7 7 7C6.448 7 6 6.552 6 6C6 5.448 6.448 5 7 5ZM3 7H4.185C4.599 8.161 5.698 9 7 9C8.302 9 9.401 8.161 9.815 7H21C21.553 7 22 6.553 22 6C22 5.447 21.553 5 21 5H9.815C9.401 3.839 8.302 3 7 3C5.698 3 4.599 3.839 4.185 5H3C2.447 5 2 5.447 2 6C2 6.553 2.447 7 3 7Z" fill="#000000"/>
</g>
</svg>
